public/svgs/solid/mailbox.svg

<svg xmlns="http://www.w3.org/2000/svg" viewBox="0 0 576 512"><!-- Font Awesome Pro 6.0.0-alpha2 by @fontawesome - https://fontawesome.com License - https://fontawesome.com/license (Commercial License) --><path d="M432 64H244.875C290.25 95.875 320 148.5 320 208V448H544C561.625 448 576 433.625 576 416V208C576 128.5 511.5 64 432 64ZM512 272C512 280.836 504.838 288 496 288H464C455.164 288 448 280.836 448 272V224H400C391.201 224 384 216.801 384 208S391.201 192 400 192H496C504.838 192 512 199.164 512 208V272ZM144 64C64.5 64 0 128.5 0 208V416C0 433.625 14.375 448 32 448H288V208C288 128.5 223.5 64 144 64ZM208 224H80C71.164 224 64 216.836 64 208S71.164 192 80 192H208C216.838 192 224 199.164 224 208S216.838 224 208 224Z"/></svg>

<svg xmlns="http://www.w3.org/2000/svg" viewBox="0 0 576 512"><!--! Font Awesome Pro 6.5.1 by @fontawesome - https://fontawesome.com License - https://fontawesome.com/license (Commercial License) Copyright 2023 Fonticons, Inc. --><path d="M0 208V384c0 35.3 28.7 64 64 64H224c35.3 0 64-28.7 64-64V208c0-79.5-64.5-144-144-144S0 128.5 0 208zm64 0c0-8.8 7.2-16 16-16H208c8.8 0 16 7.2 16 16s-7.2 16-16 16H80c-8.8 0-16-7.2-16-16zm256 0V384c0 24.6-9.2 47-24.4 64H512c35.3 0 64-28.7 64-64V208c0-79.5-64.5-144-144-144H245.2C290.4 95.9 320 148.5 320 208zm64 0c0-8.8 7.2-16 16-16h64 32c8.8 0 16 7.2 16 16v64c0 8.8-7.2 16-16 16H464c-8.8 0-16-7.2-16-16V224H400c-8.8 0-16-7.2-16-16z"/></svg>
